X: 16
T:Miss Helen McInnes
B:William Marshall Volume 2nd Of A Collection Of Scottish Melodies (1845)
C:William Marshall
L:1/8
M:6/8
O:Scotland
R:Jig
Z:Clark Bernst
%%Page:29 - 2
F:http://richardrobinson.tunebook.org.uk/tune/3859
%%TBL:{"version":1,"type":"tune","id":"3859"}
K:A
E2 A A2 F | GAB BGE | EGA ABc | d3/2e/f ecA | dfa edc | \
B3/2c/A GFE | F3/2G/A BGE | A3 A2 e ||
cea cea | ^dfb dfb | geB geB | fge {e}^dcB | bgb afa | \
geg f^dB | c3/2d/e f^dB | e3 E3 ||
E2 A A2 F | GAB BGE | EFG ABc | def ecA | \
{e}d2 c fed | cBA GFE | F2 B {A}GFE | {G}A3 A2 e |]

